Papirus/24x24/mimetypes/application-dxf.svg

<svg xmlns="http://www.w3.org/2000/svg" width="24" height="24" version="1.1">
 <path style="opacity:0.2" d="m 5,2.499999 c -0.554,0 -1,0.446 -1,1 V 21.5 c 0,0.553999 0.446,1 1,1 h 14 c 0.554,0 1,-0.446001 1,-1 V 8.499999 l -5.5,-0.5 -0.5,-5.5 z"/>
 <path style="fill:#ec4646" d="M 5,2 C 4.446,2 4,2.446 4,3 V 21 C 4,21.554 4.446,22 5,22 H 19 C 19.554,22 20,21.554 20,21 V 8 L 14.5,7.5 14,2 Z"/>
 <path style="opacity:0.2;fill:#ffffff" d="M 5,2 C 4.446,2 4,2.446 4,3 V 3.5 C 4,2.946 4.446,2.5 5,2.5 H 14 V 2 Z"/>
 <path style="opacity:0.2" d="m 14,2.499999 v 5 c 0,0.5525 0.448,1 1,1 h 5 z"/>
 <path style="fill:#f17575" d="M 14,2 V 7 C 14,7.5525 14.448,8 15,8 H 20 Z"/>
 <path style="opacity:0.2;stroke:#000000;stroke-width:0;stroke-linejoin:round" d="M 8.0000008,2.499999 V 14.5 H 4.9999999 v 3 H 4 v 1 h 0.9999999 v 3 h 3.0000009 v 1 h 1 v -1 H 12 v -3 h 8 v -1 h -8 v -3 H 9.0000008 V 2.499999 Z M 6.0000002,15.5 h 2.0000006 1 H 11 v 2 1 2 h -1.9999992 -1 -2.0000006 v -2 -1 z m 2.0000006,2 v 1 h 1 v -1 z"/>
 <path style="fill:#ffffff;stroke:#000000;stroke-width:0;stroke-linejoin:round" d="M 8.0000008,2 V 14 H 4.9999999 v 3 H 4 v 1 h 0.9999999 v 3 h 3.0000009 v 1 h 1 V 21 H 12 v -3 h 8 V 17 H 12 V 14 H 9.0000008 V 2 Z M 6.0000002,15 h 2.0000006 1 H 11 v 2 1 2 h -1.9999992 -1 -2.0000006 v -2 -1 z m 2.0000006,2 v 1 h 1 v -1 z"/>
</svg>

<svg xmlns="http://www.w3.org/2000/svg" width="24" height="24" version="1.1">
 <path style="opacity:0.2" d="m 5,2.5 c -0.554,0 -1,0.446 -1,1 V 21.5 c 0,0.553999 0.446,1 1,1 h 14 c 0.554,0 1,-0.446001 1,-1 V 8.5 l -5.5,-0.5 -0.5,-5.5 z"/>
 <path style="fill:#ec4646" d="M 5,2 C 4.446,2 4,2.446 4,3 V 21 C 4,21.554 4.446,22 5,22 H 19 C 19.554,22 20,21.554 20,21 V 8 L 14.5,7.5 14,2 Z"/>
 <path style="opacity:0.2;fill:#ffffff" d="M 5,2 C 4.446,2 4,2.446 4,3 V 3.5 C 4,2.946 4.446,2.5 5,2.5 H 14 V 2 Z"/>
 <path style="opacity:0.2" d="m 14,2.5 v 5 c 0,0.5525 0.448,1 1,1 h 5 z"/>
 <path style="fill:#f17575" d="M 14,2 V 7 C 14,7.5525 14.448,8 15,8 H 20 Z"/>
 <path style="opacity:0.2" d="M 8,2.5 V 14.5 H 5 V 17.5 H 4 V 18.5 H 5 V 21.5 H 8 V 22 H 9 V 21.5 H 12 V 18.5 H 20 V 17.5 H 12 V 14.5 H 9 V 2.5 Z M 6,15.5 H 11 V 20.5 H 6 Z M 8,17.5 V 18.5 H 9 V 17.5 Z"/>
 <path style="fill:#ffffff" d="M 8,2 V 14 H 5 V 17 H 4 V 18 H 5 V 21 H 8 V 22 H 9 V 21 H 12 V 18 H 20 V 17 H 12 V 14 H 9 V 2 Z M 6,15 H 11 V 20 H 6 Z M 8,17 V 18 H 9 V 17 Z"/>
</svg>
